X:372
T:William and Nancy
M:6/8
O:Bledington
K:G
P:A
|: D |\
"G"G2 G GBd  | "C"e2 e "G"dBG  | "Am"A2c BAG  | "D"E2 F "G"G2 D|\
"G"G2 G GBd  | "C"e2 e "G"dBG  | "Am"A2 c BAG  | "D"E2 F "G"G2 :|
P:B
|: d | "C"e2 d B2 d | "G"gfe  "D"d2 d | "C"e2 d B2 d | "G"gfe  "D"d2 \
   c | "G"G2 G GBd  | "C"e2 e "G"dBG  | "Am"A2 c BAG  | "D"E2 F "G"G2 :|\
